src/main/resources/icons/JbpmIcons/icons/bpmn/events/Start_16_Conditional.svg

<svg xmlns="http://www.w3.org/2000/svg" width="16" height="16" viewBox="0 0 16 16">
  <path fill="#62B543" fill-opacity=".7" fill-rule="evenodd" d="M8,15 C4.13400675,15 1,11.8659932 1,8 C1,4.13400675 4.13400675,1 8,1 C11.8659932,1 15,4.13400675 15,8 C15,11.8659932 11.8659932,15 8,15 Z M5,4 L5,12 L11,12 L11,4 L5,4 Z M6,5 L10,5 L10,6 L6,6 L6,5 Z M6,7 L10,7 L10,8 L6,8 L6,7 Z M6,9 L10,9 L10,10 L6,10 L6,9 Z"/>
</svg>

<svg xmlns="http://www.w3.org/2000/svg" width="16" height="16" viewBox="0 0 16 16"><rect id="frame" width="16" height="16" fill="none"/><path fill="#62B543" fill-opacity=".7" fill-rule="evenodd" d="M8 15A7 7 0 1 1 8 1a7 7 0 0 1 0 14zM5 4v8h6V4H5zm1 1h4v1H6V5zm0 2h4v1H6V7zm0 2h4v1H6V9z"/></svg>
